!!!COM:	L. van BEETHOVEN
!!!OTL:	String Quartet Op.18 No.5
**kern	**dynam
*I"Violoncello	*
*clefF4	*
*k[f#c#g#]	*
*A:	*
*M6/8	*
=1	=1
!LO:TX:a:B:t=Allegro	!
8AAL	f
8C#	.
8E	.
4A	sf
8r	.
=2	=2
8AAL	.
8C#	.
8E	.
4A	sf
8r	.
=3	=3
8AAL	.
8C#	.
8E	.
4A	sf
8r	.
=4	=4
2.r	.
=5	=5
(8AAL	p
8D	.
8F#)	.
[4.AA	.
=6	=6
(8AAL	.
8D	.
8E)	.
[4.AA	.
=7	=7
(8AAL	.
8D	.
8E)	.
(8AAL	.
8C#	.
8E)	.
=8	=8
(8AAL	.
8C#	.
8E)	.
(8AAL	.
8E	.
8G)	.
=9	=9
(8AAL	.
8D	.
8F#)	.
[4.AA	.
=10	=10
(8AAL	.
8D	.
8E)	.
(8AAL	.
8BB	.
8D)	.
=11	=11
4AA	.
8r	.
4.r	.
=12	=12
8r	.
8E	p
8E	.
4r	.
8r	.
=13	=13
8r	.
8C#	.
8C#	.
4r	.
8r	.
=14	=14
8r	.
8D	.
8D	.
8r	.
8E	.
8E	.
=15	=15
8r	.
8AA	.
8AA	.
4r	.
8r	.
=16	=16
8r	.
8E	.
8E	.
4r	.
8r	.
=17	=17
8r	.
!LO:TX:t=cresc.	!
8C#	<
8C#	.
8r	.
8G	.
8G	.
=18	=18
8r	.
8F#	.
8F#	.
8r	.
8F	.
8F	[
=19	=19
4.E	p
(8DL	.
8BB	.
8D	.
=20	=20
8C#L	.
8AA	.
8GG#	.
8AAL	.
8FF#	.
8BB)	.
=21	=21
8EEL	.
!LO:TX:t=cresc.	!
(8E	<
8D#	.
8EL	.
8D	.
8BB	.
=22	=22
8C#L	.
8AA	.
8GG#	.
8AAL	.
8FF#	.
8BB)	.
=23	=23
8EEL	f
8GG#	.
8BB	.
8EL	.
8G#	.
8B	.
=24	=24
4e	.
8r	.
8r	.
8r	.
8BB	p
=25	=25
4G	.
8D#	.
4E	.
8BB	.
=26	=26
(4C	sf
16D	.
16C	.
4BB)	.
(16B	.
16A)	.
=27	=27
(4G	.
8F#	.
4E	.
8D#)	.
=28	=28
(4E	.
8AA#	.
4BB)	.
8r	.
=29	=29
(4E	.
8F#	.
4G)	.
(8G#	.
=30	=30
4A	.
8B)	.
4c	.
8F#	.
=31	=31
4G	.
8C	.
4D	.
8DD	.
=32	=32
4GG	.
8D	.
4G	.
8BB	f
=33	=33
4G	.
8D#	.
4E	.
8BB	.
=34	=34
(4C	sf
16D	.
16C	.
4BB)	.
8r	.
=35	=35
2.r	.
=36	=36
2.r	.
*clefG2	*
=37	=37
(4e	pp
8f#	.
4g#)	.
(8g#	.
=38	=38
4a	.
8b	.
4cc#)	.
8r	.
=39	=39
2.r	.
=40	=40
2.r	.
*clefF4	*
=41	=41
4r	.
8r	.
4r	.
(8E	pp
=42	=42
4D#	.
8E	.
4AA	.
8BB)	.
=43	=43
4EE	.
8r	.
4r	.
8r	.
=44	=44
2.r	.
=45	=45
2.r	.
=46	=46
2.r	.
=47	=47
2.r	.
=48	=48
(4BB	f
8C#)	.
8D#L	.
8E	.
8F#	.
=49	=49
(8G#L	p
8E)	.
8r	.
(8AL	.
8c#)	.
8r	.
=50	=50
(8BBL	.
8E)	.
8r	.
(8BBL	.
8F#)	.
8r	.
=51	=51
4EE	f
8r	.
4r	.
8r	.
=52	=52
(4BB	sf
8C#)	.
8DL	.
8C#	.
8BB	.
=53	=53
4AA	.
8GG#	.
4FF#	.
8r	.
=54	=54
(4C#	sf
8D#)	.
8EL	.
8D#	.
8C#	.
=55	=55
4BB	.
8AA#	.
4GG#	.
8r	.
=56	=56
4BB	sf
8C#	.
8D#L	.
8E	.
8F#	.
=57	=57
4BB	sf
8C#	.
8D#L	.
8E	.
8F#	.
=58	=58
8F#L	sf
8F#	.
8E	.
8D#L	.
8C#	.
8BB	.
=59	=59
4E	.
8r	.
4C#	.
8r	.
=60	=60
4GG#	.
8r	.
4AA#	.
8r	.
=61	=61
(8BBL	sf
8G#	.
8E)	.
8BBL	.
8BB	.
8BB	.
=62	=62
4E	.
8r	.
4r	.
8r	.
=63	=63
(8BL	sf
8G#	.
8E)	.
8BBL	.
8BB	.
8BB	.
=64	=64
4E	.
8r	.
4r	.
8r	.
=65	=65
(8BL	sf
8G#	.
8E)	.
8BBL	.
8BB	.
8BB	.
=66	=66
4E	.
8r	.
4r	.
8r	.
=67	=67
2.r	.
=68	=68
[4.d	sfp
8dL	.
8c#	.
8G#	.
=69	=69
8AL	.
8G#	.
8F#	.
8BL	.
8B	.
8BB	.
=70	=70
4E	.
8r	.
!LO:TX:t=cresc	!
(4E	<
8E)	.
=71	=71
(4E	.
8E)	.
(4E	.
8E)	[
=72	=72
[4.E#	f
8E#L	.
8E#	.
8E#	.
=73	=73
8F#L	.
8G#	.
8A	.
8BL	.
8B	.
8BB	.
=74	=74
4EE	p
8r	.
4BB	.
8r	.
=75	=75
4E	.
8r	.
4BB	.
8r	.
=76	=76
4EE	.
8r	.
4BB	.
8r	.
=77	=77
4E	.
8r	.
4BB	.
8r	.
=78	=78
4E	.
8r	.
4E	.
8r	.
=79	=79
(16ELL	.
16F#	.
16G#	.
16A	.
16B	.
16G#)	.
8EL	.
8D	.
8BB	.
=80:|!	=80:|!
(16ELL	.
16F#	.
16G#	.
16A	.
16B	.
16G#)	.
8EL	.
8D#	.
8D	.
=81	=81
4C#	.
8r	.
4r	.
8r	.
=82!|:	=82!|:
!LO:TX:t=cresc.	!
(4C#	<
8C#)	.
(4C#	.
8C#)	.
=83	=83
[4.E#	f
8E#L	.
8F#	.
8G#	.
=84	=84
4A	.
8r	.
4r	.
8r	.
=85	=85
[4.B	sf
8BL	.
8A	.
8G#	.
=86	=86
4F#	.
8r	.
4r	.
8r	.
=87	=87
[4.g	sf
8gL	.
8f#	.
8e	.
=88	=88
4d	.
8r	.
4r	.
8r	.
=89	=89
[4.G	pp
8GL	.
8F#	.
8E	.
=90	=90
(8DL	.
8F#)	.
8r	.
(8GL	.
8B)	.
8r	.
=91	=91
(8AAL	.
8D)	.
8r	.
(8AAL	.
8E)	.
8r	.
=92	=92
(8DDL	.
8AA	.
8FF#)	.
[4.DD	.
=93	=93
(8DDL	.
8C	.
8AA)	.
[4.DD	.
=94	=94
(8DDL	.
8BB	.
8GG)	.
[4.DD	.
=95	=95
(8DDL	.
8AA	.
8GG)	.
[4.DD	.
=96	=96
(8DDL	.
8AA	.
8GG)	.
(8DDL	.
8AA	.
8FF#)	.
=97	=97
(8DDL	.
8C	.
8AA)	.
[4.DD	.
=98	=98
(8DDL	.
8BB	.
8GG)	.
(4.DD	.
=99	=99
8DDL)	.
8AA	.
8GG)	.
(8DDL	.
8AA	.
8GG)	.
=100	=100
4DD	.
8r	.
4r	.
8r	.
=101	=101
2.r	.
=102	=102
4r	.
8r	.
(16DLL	f
16E	.
16F#	.
16G	.
16A	.
16F#)	.
=103	=103
4GG	.
8r	.
4AA	.
8r	.
=104	=104
4DD	.
8r	.
4r	.
8r	.
=105	=105
2.r	.
=106	=106
4r	.
8r	.
(16DLL	p
16E	.
16F#	.
16G	.
16A	.
16F#)	.
=107	=107
4G	.
8r	.
(16AALL	.
16BB	.
16C#	.
16D	.
16E	.
16C#)	.
=108	=108
4D	.
8r	.
4r	.
8r	.
=109	=109
2.r	.
=110	=110
2.r	.
=111	=111
2.r	.
=112	=112
!LO:TX:t=cresc.	!
4.D	<
4.C	.
=113	=113
4.BB-	.
4.AA	.
=114	=114
4GG#	[
8r	.
4r	.
8r	.
=115	=115
4r	.
8r	.
16ELL	sf
16F	.
16E	.
16D	.
16C	.
16BB	.
=116	=116
!LO:TX:t=cresc.	!
(4.AA	<
4.GG	.
=117	=117
4.FF	.
4.EE)	.
=118	=118
4DD#	f
8r	.
4r	.
8r	.
=119	=119
8r	.
8D#	.
8D#	.
8D#L	.
8D#	.
8D#	.
=120	=120
4E	.
8r	.
(4.d	p
=121	=121
4.c	.
4.B)	.
=122	=122
4c	.
8r	.
(4.C	.
=123	=123
4.BB	.
4.AA)	.
=124	=124
4EE	.
8r	.
(4.d	.
=125	=125
4.c	.
4.B)	.
=126	=126
4c	.
8r	.
(4.C	.
=127	=127
4.BB	.
4.AA)	.
=128	=128
4EE	.
8r	.
(4E	pp
8E)	.
=129	=129
(4E	.
8D	.
4C#	.
8BB)	.
=130	=130
[4.AA#	.
4AA#	.
(24AA#	.
24BB	.
24C#	.
=131	=131
4D	.
8C#	.
4BB	.
8AA)	.
=132	=132
[4.GG#	.
4GG#	.
(24EE	.
24FF#	.
24GG#	.
=133	=133
!LO:TX:t=cresc.	!
[4.AA)	<
4AA	.
(24AA	.
24BB	.
24C#	.
=134	=134
[4.D)	.
4D	.
(24D	.
24E	.
24F#	[
=135	=135
2.E)	f
=136	=136
[4.EE	sf
8EEL	.
8EE	.
8EE	.
=137	=137
8AAL	.
8C#	.
8E	.
4A	sf
8r	.
=138	=138
8AAL	.
8C#	.
8E	.
4A	sf
8r	.
=139	=139
8AAL	.
8C#	.
8E	.
4A	sf
8r	.
=140	=140
2.r	.
=141	=141
(8AAL	p
8D	.
8F#)	.
[4.AA	.
=142	=142
(8AAL	.
8D	.
8E)	.
[4.AA	.
=143	=143
(8AAL	.
8D	.
8E)	.
(8AAL	.
8C#	.
8E)	.
=144	=144
(8AAL	.
8C#	.
8E)	.
(8AAL	.
8E	.
8G)	.
=145	=145
(8AAL	.
8D	.
8F#)	.
[4.AA	.
=146	=146
(8AAL	.
8D	.
8E)	.
(8AAL	.
8BB	.
8D)	.
=147	=147
4AA	.
8r	.
4.r	.
=148	=148
8r	.
8E	p
8E	.
4r	.
8r	.
=149	=149
8r	.
8C#	.
8C#	.
4r	.
8r	.
=150	=150
8r	.
8D	.
8D	.
8r	.
8E	.
8E	.
=151	=151
8r	.
8AA	.
8AA	.
4r	.
8r	.
=152	=152
!LO:TX:t=cresc.	!
4FF#	<
8r	.
4GG	.
8r	.
=153	=153
4GG#	.
8r	.
4AA	.
8r	.
=154	=154
4BB-	.
8r	.
4BB	.
8r	[
=155	=155
4GG	f
8r	.
4C	.
8r	.
=156	=156
4BB	p
8r	.
4C	.
8r	.
=157	=157
4AA	f
8r	.
4D	.
8r	.
=158	=158
4D#	p
8r	.
4E	.
8r	.
=159	=159
4F	.
8r	.
4D#	.
8r	.
=160	=160
8EEL	.
8E	.
8E	.
(8DL	.
8BB	.
8D	.
=161	=161
8C#L	.
8AA	.
8GG#	.
8AAL	.
8FF#	.
8BB)	.
=162	=162
8EEL	.
(8E	.
8D#	.
8EL	.
8D	.
8BB	.
=163	=163
!LO:TX:t=cresc.	!
8C#L	<
8AA	.
8GG#	.
8AAL	.
8FF#	.
8BB)	.
=164	=164
8EEL	f
8GG#	.
8BB	.
8EL	.
8G#	.
8B	.
=165	=165
4e	.
8r	.
8r	.
8r	.
8E	p
=166	=166
4c	.
8G#	.
4A	.
8E	.
=167	=167
(4F	sf
16G	.
16F	.
4E)	.
(16e	.
16d)	.
=168	=168
(4c	.
8B	.
4A	.
8G#)	.
=169	=169
(4A	.
8D#	.
4E)	.
8r	.
=170	=170
(4A	.
8B	.
4c)	.
(8c#	.
=171	=171
4d	.
8e	.
4f)	.
8B	.
=172	=172
4c	.
8F#	.
4G	.
8GG	.
=173	=173
4C	.
8G	.
4c	.
8EE	f
=174	=174
4C	.
8GG#	.
4AA	.
8EE	.
=175	=175
(4FF	sf
16GG	.
16FF)	.
4EE	.
8r	.
=176	=176
2.r	.
=177	=177
2.r	.
=178	=178
(4A	pp
8B	.
4c#)	.
(8c#	.
=179	=179
4d	.
8e)	.
4f#	.
8r	.
=180	=180
2.r	.
=181	=181
2.r	.
=182	=182
4r	.
8r	.
8r	.
8r	.
8A	.
=183	=183
(4G#	.
8A	.
4D	.
8E)	.
=184	=184
4AA	.
8r	.
4r	.
8r	.
=185	=185
2.r	.
=186	=186
2.r	.
=187	=187
2.r	.
=188	=188
2.r	.
=189	=189
(4E	f
8F#)	.
8G#L	.
8A	.
8B	.
=190	=190
(8c#L	p
8A)	.
8r	.
(8DL	.
8F#)	.
8r	.
=191	=191
(8EL	.
8A)	.
8r	.
(8EL	.
8B)	.
8r	.
=192	=192
4AA	f
8r	.
4r	.
8r	.
=193	=193
(4E	sf
8F#)	.
8GL	.
8F#	.
8E	.
=194	=194
4D	.
8C#	.
4BB	.
8r	.
=195	=195
(4F#	sf
8G#)	.
8AL	.
8G#	.
8F#	.
=196	=196
4E	.
8D#	.
4C#	.
8r	.
=197	=197
4E	sf
8F#	.
8G#L	.
8A	.
8B	.
=198	=198
4E	sf
8F#	.
8G#L	.
8A	.
8B	.
=199	=199
8BL	sf
8B	.
8A	.
8G#L	.
8F#	.
8E	.
=200	=200
4A	.
8r	.
4F#	.
8r	.
=201	=201
4C#	.
8r	.
4D#	.
8r	.
=202	=202
(8EL	sf
8C#	.
8AA)	.
8EEL	.
8EE	.
8EE	.
=203	=203
4AA	.
8r	.
4r	.
8r	.
=204	=204
(8E	sf
8C#	.
8AA)	.
8EEL	.
8EE	.
8EE	.
=205	=205
4AA	.
8r	.
4r	.
8r	.
=206	=206
(8EL	sf
8C#	.
8AA)	.
8EEL	.
8EE	.
8EE	.
=207	=207
4AA	.
8r	.
4r	.
8r	.
=208	=208
2.r	.
=209	=209
[4.A	sfp
8AL	.
8B	.
8c#	.
=210	=210
8dL	.
8c#	.
8B	.
8eL	.
8e	.
8E	.
=211	=211
4A	.
8r	.
!LO:TX:t=p cresc.	!
(4A	<
8A)	.
=212	=212
(4A	.
8A)	.
(4A	.
8A)	.
=213	=213
4.A#	f
8A#L	.
8A#	.
8A#	.
=214	=214
8BL	.
8c#	.
8d	.
8eL	.
8e	.
8E	.
=215	=215
4AA	p
8r	.
4E	.
8r	.
=216	=216
4A	.
8r	.
4E	.
8r	.
=217	=217
4AA	.
8r	.
4E	.
8r	.
=218	=218
4A	.
8r	.
4E	.
8r	.
=219	=219
4AA	.
8r	.
4A	.
8r	.
=220	=220
4AA	.
8r	.
4r	.
8r	.
=221	=221
4r	.
8r	.
!LO:TX:t=cresc.	!
(4C#	.
8C#)	.
=222:|!	=222:|!
(16AALL	f
16BB	.
16C#	.
16D	.
16E	.
16C#)	.
4AA	.
8r	.
=223	=223
4A	p
8r	.
4r	.
8r	.
=224	=224
4A	.
8r	.
4r	.
8r	.
=225	=225
4r	.
8r	.
!LO:TX:t=cresc.	!
8AL	<
8B	.
8c#	.
=226	=226
8c#L	.
8d	.
8B	.
4c#	[
8r	.
=227	=227
4r	.
8r	.
4E	f
8r	.
=228	=228
4AA	.
8r	.
4r	.
8r	.
=229	=229
*M3/4	*
!LO:TX:a:B:t=Menuetto	!
4r	.
=230	=230
2.r	.
=231	=231
2.r	.
=232	=232
2.r	.
=233	=233
2.r	.
=234	=234
2.r	.
=235	=235
2.r	.
=236	=236
2.r	.
=237	=237
2.r	.
=238	=238
2.r	.
=239	=239
2.r	.
=240	=240
2.r	.
=241	=241
2.r	.
=242	=242
4r	.
(4c#	p
4A)	.
=243	=243
4r	.
(4G#	.
4E)	.
=244	=244
4r	.
(4C#	.
4AA)	.
=245	=245
4EE	.
4r	.
4r	.
=246	=246
4r	.
(4c#	.
4A)	.
=247	=247
4r	.
(4A	.
4F#)	.
=248	=248
4r	.
(4F#	.
4D#)	.
=249	=249
4r	.
(4BB	.
4AA)	.
=250	=250
4r	.
(4GG#	.
4EE)	.
=251	=251
4r	.
(4C#	.
4BB)	.
=252	=252
(4AA	.
4FF#)	.
4BB	.
=253	=253
4EE	.
4r	.
4r	.
=254!|:	=254!|:
4E	p
4E	.
4E	.
=255	=255
4E	.
4E	.
4E	.
=256	=256
4E	.
4r	.
4r	.
=257	=257
2.r	.
=258	=258
4e	p
4e	.
4e	.
=259	=259
4e	.
4e	.
4e	.
=260	=260
4e	.
4r	.
4r	.
=261	=261
2.r	.
=262	=262
4E#	p
4r	.
4r	.
=263	=263
4F#	.
4r	.
4r	.
=264	=264
4G#	.
4r	.
4r	.
=265	=265
4A	.
4r	.
4r	.
=266	=266
4G#	.
4r	.
4r	.
=267	=267
4GG#	.
4r	.
4r	.
=268	=268
!LO:TX:t=cresc.	!
(4CC#	<
4CC#	.
4CC#)	.
=269	=269
(4CC#	.
4CC#	.
4CC#)	.
=270	=270
(4CC#	.
4CC#	.
4CC#)	.
=271	=271
(4CC#	.
4CC#	.
4CC#)	.
=272	=272
(4CC#	.
4CC#	.
4CC#)	.
=273	=273
4C#	ff
4C#	.
4C#	.
=274	=274
2.r	.
=275	=275
2.r	.
=276	=276
2.r	.
=277	=277
2.r	.
=278	=278
2.r	.
=279	=279
2.r	.
=280	=280
2.r	.
=281	=281
2.r	.
=282	=282
2.r	.
=283	=283
2.r	.
=284	=284
2.r	.
=285	=285
2.r	.
=286	=286
2.r	.
=287	=287
4r	.
(4F#	p
4D)	.
=288	=288
4r	.
(4C#	.
4AA)	.
=289	=289
4r	.
(4DD	.
4FF#)	.
=290	=290
4r	.
(4AA	.
4G)	.
=291	=291
4r	.
(4F#	.
4AA)	.
=292	=292
4r	.
(4C#	.
4AA)	.
=293	=293
4r	.
(4D	.
4AA)	.
=294	=294
4r	.
(4A	.
4G)	.
=295	=295
4r	.
!LO:TX:t=cresc.	!
(4F#	<
4D)	.
=296	=296
4r	.
(4C#	.
4D)	.
=297	=297
4r	.
(4AA#	.
4BB)	.
=298	=298
4r	.
(4E	.
4D)	.
=299	=299
4r	.
(4BB#	.
4C#)	.
=300	=300
4r	.
(4F#	.
4E)	.
=301	=301
(4D	f
4BB)	.
4E	.
=302	=302
4AA	.
4r	.
4r	.
=303	=303
2.d	p
=304	=304
2.c#	.
=305	=305
4B	.
4G#	.
4E	.
=306	=306
4A	.
4r	.
4r	.
=307	=307
!LO:TX:t=cresc.	!
2.D	<
=308	=308
2.C#	.
=309	=309
2BB	sfp
4E	.
=310	=310
4AA	.
4r	.
4r	.
=311:|!	=311:|!
4AA	.
4r	.
=!|:	=!|:
!LO:TX:a:B:t=Trio	!
4r	.
=312	=312
2AA	p
4EE	sf
=313	=313
2BB	.
4EE	sf
=314	=314
2D	.
4EE	sf
=315	=315
2C#	.
4C	sf
=316	=316
2BB	.
4AA#	sf
=317	=317
2BB	.
4B	sf
=318	=318
2BB	.
4B	.
=319	=319
4E	.
4r	.
=:|!|:	=:|!|:
4r	.
=320	=320
(4c#	p
4G#	.
4A	.
=321	=321
4B	.
4F#	.
4G#	.
=322	=322
4A	.
4G#	.
4F#	.
=323	=323
4E)	.
4r	.
4r	.
=324	=324
!LO:TX:t=cresc.	!
(4C#	<
4GG#	.
4AA	.
=325	=325
4BB	.
4FF#	.
4GG#	.
=326	=326
4AA	.
4GG#	.
4FF#	.
=327	=327
4EE)	[
4r	.
4r	.
=328	=328
2AA	p
4EE	sf
=329	=329
2BB	.
4EE	sf
=330	=330
2GG#	.
4EE	sf
=331	=331
2AA	.
4C#	sf
=332	=332
2CC#	.
4C#	sf
=333	=333
2DD	.
4D	sf
=334	=334
2EE	.
4E	.
=335	=335
!LO:TX:a:B:t=Menuetto D.C.	!
4AA	.
4r	.
=336	=336
*k[f#c#]	*
*D:	*
*M2/4	*
!LO:TX:a:B:t=Andante cantabile	!
8r	.
=337	=337
2D	p
=338	=338
2AA	.
=339	=339
2AA	.
=340	=340
2D	.
=341	=341
2D	.
=342	=342
2AA	.
=343	=343
4EE	.
4E	.
=344	=344
4.AA	.
=:|!|:	=:|!|:
(8F#L	.
=345	=345
8DL	.
8E	.
16GLL	.
16F#	.
16E	.
16F#)	.
=346	=346
(8GL	.
8B	.
16F#LL)	.
(16D	.
16F#	.
16A)	.
=347	=347
!LO:TX:t=cresc.	!
4.d	<
8c	.
=348	=348
8BL	.
8G	.
8d	[
8r	.
=349	=349
2D	p
=350	=350
2A	.
=351	=351
4.AA	.
8AA	.
=352	=352
8DL	.
8AA	.
8DD	.
=:|!|:	=:|!|:
!LO:TX:a:B:t=Var. 1.	!
16.AALL	p
32AA	.
=353	=353
4F#	.
16GLL	.
16E	.
16F#	.
16D	.
=354	=354
16C#LL	.
16D	.
16E	.
16F#	.
!LO:TX:t=sempre stacc.	!
16ELL	.
16D	.
16C#	.
16BB	.
=355	=355
16AALL	.
16A	.
16BB	.
16A	.
16C#LL	.
16A	.
16AA	.
16A	.
=356	=356
16DLL	.
16A	.
16E	.
16A	.
16F#LL	.
16A	.
16C#	.
16A	.
=357	=357
16DLL	.
16A	.
16d	.
16A	.
16c#LL	.
16A	.
16d	.
16D	.
=358	=358
!LO:TX:t=cresc.	!
16c#LL	<
16C#	.
16B	.
16BB	.
16ALL	.
16AA	.
16F#	.
16FF#	[
=359	=359
16EELL	.
16EE	sf
16AA	.
16C#	sf
16ELL	.
16G#	sf
16B	.
16d	sf
=360	=360
(4d	p
8c#L)	.
=:|!|:	=:|!|:
16.AALL	p
32AA	.
=361	=361
8.DL	.
(48AA	.
48BB	.
48C#)	.
16DLL	.
16C#	.
16D	.
16C	.
=362	=362
!LO:TX:t=sempre stacc.	!
16DLL	.
16BB	.
16D	.
16BB-	.
16DLL	.
16AA	.
16D	.
16GG	.
=363	=363
16FF#LL	.
16D	.
16DD	.
16D	.
16EELL	.
16D	.
16FF#	.
16D	.
=364	=364
16GGLL	.
16D	.
16GG	.
16D	.
16FF#LL	.
16D	.
16GG	.
16D	.
=365	=365
16DDLL	.
16A	.
16D	.
16A	.
16C#LL	.
16A	.
16D	.
16A	.
=366	=366
!LO:TX:t=cresc.	!
16ELL	<
16A	.
16D	.
16A	.
16C#LL	.
16A	.
16BB	.
16A	.
=367	=367
16AALL	[
16AA	sf
16C#	.
16E	sf
16ALL	.
16c#	sf
16e	.
16g	sf
=368	=368
(4g	p
8f#L)	.
=:|!|:	=:|!|:
!LO:TX:a:B:t=Var. 2.	!
8r	.
=369	=369
16D	pp
16r	.
16D	.
16r	.
4r	.
=370	=370
8EL	.
8E	.
4r	.
=371	=371
8C#L	.
8C#	.
4r	.
=372	=372
8DL	.
8D	.
4r	.
=373	=373
8DL	.
8r	.
8C#L	.
8BB	.
=374	=374
8C#L	.
8r	.
8BBL	.
8AA	.
=375	=375
8r	.
8EE	.
8r	.
8E	.
=376	=376
8AAL	.
8EE	.
8AA	.
=:|!|:	=:|!|:
8r	.
=377	=377
8DL	.
8D	.
4r	.
=378	=378
2r	.
=379	=379
8DL	.
8D	.
4r	.
=380	=380
24GGLL	<
24BB	.
24D	.
24GLL	.
24B	.
24d	[
24dLL	>
24d	.
24d	.
24dLL	.
24d	.
24d	]
=381	=381
8DL	pp
8D	.
4r	.
=382	=382
8EL	.
8E	.
4r	.
=383	=383
8r	.
8C#	.
8r	.
8AA	.
=384	=384
8DL	.
8AA	.
8DL	.
=:|!	=:|!
!LO:TX:a:B:t=Var. 3.	!
8r	.
=385!|:	=385!|:
(4D	p
8EL	.
8F#	.
=386	=386
8GL)	.
8r	.
4r	.
=387	=387
(4AA	.
8BBL	.
8C#)	.
=388	=388
8DL	.
8r	.
4r	.
=389	=389
2r	.
=390	=390
!LO:TX:t=cresc.	!
[4AA	<
(16AALL	.
16BB	.
16C#	.
16D)	.
=391	=391
[2E	.
=392	=392
8EL	[
8AA	p
4r	.
=393:|!|:	=393:|!|:
2r	.
=394	=394
2r	.
=395	=395
[4D	p
(16DLL	.
16AA	.
16D	.
16C)	.
=396	=396
8BBL	.
8GG	.
8D	.
8r	.
=397	=397
[4DD	.
(16DDLL	.
16EE	.
16FF#	.
16GG)	.
=398	=398
!LO:TX:t=cresc.	!
[2AA	<
=399	=399
8AAL	.
8AA	.
8r	.
[8AA	sf
=400	=400
(4AA	[
8DDL)	p
8r	.
=401:|!	=401:|!
(4AA	.
8DDL)	p
=!|:	=!|:
!LO:TX:a:B:t=Var. 4.	!
8r	.
=402	=402
!LO:TX:t=sempre pp	!
(4d	.
8GL	.
8G#	.
=403	=403
2A)	.
=404	=404
4.F#	.
[8f#	.
=405	=405
(8f#L	.
8e	.
4d)	.
=406	=406
(4B	.
8G#L	.
8E#	.
=407	=407
8F#L	.
8C#	.
8D	.
8BB#)	.
=408	=408
(4C#	.
4CC#)	.
=409	=409
4.FF#	.
=:|!|:	=:|!|:
8r	.
=410	=410
(4FF#	.
8EEL	.
8DD)	.
=411	=411
(8GGL	.
8BB	.
4D)	.
=412	=412
[2D	.
=413	=413
2D	.
=414	=414
!LO:TX:t=cresc.	!
(4.G	<
8F#	.
=415	=415
8E#L	.
8C#	.
8D)	.
[8D#	.
=416	=416
(8D#L	pp
4E)	.
[8AA	.
=417	=417
(8AAL	.
8EE	.
8D)	.
=:|!	=:|!
!LO:TX:a:B:t=Var. 5.	!
8r	.
=418!|:	=418!|:
16DDLL	f
16F#	.
16AA	sf
16F#	.
16DDLL	.
16F#	.
16AA	sf
16F#	.
=419	=419
16EELL	.
16G	.
16DD	.
16G	.
16CC#LL	.
(32G	.
32F#	.
32E	.
32D	.
32C#	.
32BB)	.
=420	=420
16C#LL	.
16AA	.
16C#	.
16AA	.
16DLL	.
16AA	.
16G	.
16AA	.
=421	=421
16F#LL	.
16AA	.
16C#	.
16AA	.
16DLL	.
16D	.
16AA	.
16FF#	.
=422	=422
16DDLL	.
16F#	.
16AA	sf
16F#	.
16DDLL	.
16F#	.
16AA	sf
16F#	.
=423	=423
16DD#LL	.
16AA	.
16DD#	.
16AA	.
16DD#LL	.
16BB	.
16DD#	.
16C	.
=424	=424
16EELL	.
16BB	.
16EE	.
16BB	.
16EELL	.
16D	.
16EE	.
16D	.
=425	=425
16AALL	.
16D	.
16AA	.
16D	.
32AALLL	.
(32C#	.
32E	.
32C#	.
32AA	.
32GG	.
32FF#)	.
32EE	.
=426:|!	=426:|!
16AALL	.
16D	.
16AA	.
16D	.
32AALLL	.
(32C#	.
32E	.
32D	.
32C#	.
32BB	.
32AA	.
32GG)	.
=427!|:	=427!|:
16FF#LL	.
16D	.
16D	.
16D	.
16C#LL	.
16D	.
16C	.
16D	.
=428	=428
16BBLL	.
16D	.
16GG	.
16D	.
(32FF#LLL	.
32DD	.
32FF#	.
32AA	.
32DLLL	.
32F#	.
32A	.
32G)	.
=429	=429
16F#LL	.
16d	.
16d	.
16d	.
16c#LL	.
16d	.
16c	.
16d	.
=430	=430
16BLL	.
16d	.
16G	.
16d	.
16F#LL	.
16D	.
16AA	.
16FF#	.
=431	=431
16DDLL	.
16F#	.
16AA	sf
16F#	.
16DDLL	.
16F#	.
16AA	sf
16F#	.
=432	=432
16EELL	.
16G	.
16DD	.
16G	.
16CC#LL	.
(32G	.
32F#	.
32E	.
32D	.
32C#	.
32BB)	.
=433	=433
16C#LL	.
16A	.
16AA	.
16A	.
16AALL	.
16A	.
16AA	.
16G	.
=434	=434
16DDLL	.
16G	.
16AA	.
16G	.
32DDLLL	.
(32F#	.
32E	.
32D	.
32C#	.
32BB	.
32AA	.
32GG)	.
=435:|!	=435:|!
16BB-LL	p
16F	.
16D	.
16F	.
16BB-LL	.
16F	.
16D	.
16F	.
=436	=436
16BB-LL	.
16F	.
16D	.
16F	.
16BB-LL	.
16F	.
16D	.
16F	[
=437	=437
8BB-L	pp
8r	.
4r	.
=438	=438
!LO:TX:t=pizz.	!
8FFL	.
8r	.
4r	.
=439	=439
8BB-L	.
8r	.
4r	.
=440	=440
!LO:TX:t=cresc.	!
8FF	<
8r	.
4r	.
=441	=441
8GGL	p
8r	.
8CCL	.
8r	.
=442	=442
8FL	.
8r	.
8BB-L	.
8r	.
=443	=443
!LO:TX:t=cresc.	!
!LO:TX:t=arco	!
4.BB-	<
8BB-	.
=444	=444
(8AAL	.
4A	.
8G)	.
=445	=445
4F#	pp
(8EL	.
8D)	.
=446	=446
(8C#L	.
8BB)	.
4AA	.
=447	=447
4F#	.
(8EL	.
8D)	.
=448	=448
(8C#L	.
8BB)	.
[4AA	.
=449	=449
16AALL	.
16AA	.
16BB	.
16C#	.
16DLL	.
16E	.
8F#	.
=450	=450
16r	.
16G	.
16E	.
16D	.
16C#LL	.
16BB	.
8AA	.
=451	=451
16r	.
16AA	.
16BB	.
16C#	.
16DLL	.
16E	.
16F#	.
16G#	.
=452	=452
!LO:TX:t=cresc.	!
8AL	<
8A	.
[4A	.
=453	=453
16ALL	p
16A	.
16G	.
16D#	.
[4E	.
=454	=454
16ELL	.
16G	.
16F#	.
16C#	.
4D	.
=455	=455
2GG	.
=456	=456
2DD	.
=457	=457
2GG	.
=458	=458
!LO:TX:t=cresc.	!
(8DDL	<
8EE)	.
4FF	.
=459	=459
8EEL	p
8r	.
8AAL	.
8r	.
=460	=460
8DDL	.
8r	.
8GGL	.
8r	.
=461	=461
[4BB	.
16BBLL	.
16C#	.
16D#	.
16E	.
=462	=462
[4AA	.
16AALL	.
16BB	.
16C#	.
16D	.
=463	=463
!LO:TX:t=cresc.	!
8AAL	<
8.A	.
16A	.
16A	.
16A	.
=464	=464
16ryy	.
16AALL	.
8.A	.
16ALL	.
16A	.
16A	.
=465	=465
16AALL	.
8.A	sf
16AALL	sf
8.A	.
=466	=466
16AALL	sf
[8.A	.
16ALL	.
16AA	.
16A	.
16AA	[
=467	=467
4AA	f
4BB-	f
=468	=468
4GG#	f
4AA	f
=469	=469
!LO:TX:a:B:t=Poco Adagio	!
2r	[
=470	=470
2r	.
=471	=471
2r	.
=472	=472
2r	.
=473	=473
(4F#	pp
8EL	.
8D	.
=474	=474
8C#L	.
8BB	.
!LO:TX:t=cresc.	!
[4AA)	.
=475	=475
2AA	.
=476	=476
8AAL	>
8AA	.
8AAL	]
8AA	.
=477	=477
8DL	.
16.r	.
32D	.
8DL	.
16.r	.
32DD	pp
=478	=478
2DD	.
=479	=479
*k[f#c#g#]	*
*A:	*
*M2/2	*
!LO:TX:a:B:t=q =165	!
!LO:TX:a:B:t=Allegro	!
8r	.
4r	.
=480	=480
8r	.
8E	p
8F#	.
8E	.
[2A	.
=481	=481
4A	.
(4E	.
4C#	.
4AA)	.
=482	=482
(2EE	.
2AA)	.
=483	=483
(2EE	.
2AA)	.
=484	=484
4EE	.
4E	.
4BB	.
4BB	.
=485	=485
[2E	.
8EL	.
8r	.
4r	.
=486	=486
1r	.
=487	=487
8r	.
8BB	.
8AA#	.
8BB	.
(2EE	.
=488	=488
2AA	.
2E	.
=489	=489
2AA	.
2EE)	.
=490	=490
(2AA	.
2E)	.
=491	=491
4AA	.
4r	.
2r	.
=492	=492
1r	.
=493	=493
8r	.
8E	.
8F#	.
8E	.
2e	.
=494	=494
1r	.
=495	=495
(2.A	.
4B	.
=496	=496
4c#	.
4B	.
4d	.
4c#)	.
=497	=497
(2.B	.
4c#	.
=498	=498
4d	.
4c#	.
4e	.
4d)	.
=499	=499
4c#	.
4r	.
2r	.
=500	=500
2r	.
8r	.
8G#	.
8A	.
8G#	.
=501	=501
4F#	.
4r	.
2r	.
=502	=502
2r	.
8r	.
8E	.
8F#	.
8E	.
=503	=503
4D#	.
4r	.
2r	.
=504	=504
2r	.
8r	.
8C#	.
8D#	.
8C#	.
=505	=505
4BB	.
(2BB	.
8C#	.
8D#)	.
=506	=506
4E	.
4F#	.
4G	.
4E	.
=507	=507
4B	.
4r	.
2r	.
=508	=508
1r	.
=509	=509
4r	.
(2BB	.
8C#	.
8D#)	.
=510	=510
4E	.
4F#	.
4G	.
4E	.
=511	=511
4B	.
!LO:TX:t=cresc.	!
(2BB	<
8C#	.
8D#)	.
=512	=512
4E	.
4F#	.
4G	.
4E	.
=513	=513
4B	f
4E	.
4B	.
4E	.
=514	=514
4B	.
4r	.
2r	.
=515	=515
(1E	pp
=516	=516
1AA#	.
=517	=517
1AA	.
=518	=518
1GG#)	.
=519	=519
!LO:TX:t=cresc.	!
(2GG	<
[2FF#	.
=520	=520
2FF#	.
2EE)	.
=521	=521
2AA	p
2AA#	.
=522	=522
4BB	.
4r	.
2r	.
=523	=523
1r	.
=524	=524
1r	.
=525	=525
(4d#	.
4c#	.
4B	.
4A	.
=526	=526
4G#	.
4F#	.
4E	.
4D#	.
=527	=527
4C#)	.
!LO:TX:t=cresc.	!
(4C#	<
4F#	.
4E	.
=528	=528
4D#	.
4BB	.
4E	.
4GG#)	.
=529	=529
(4AA	p
4FF#	.
4BB)	.
4BB	.
=530	=530
4EE	.
[2.B	sf
=531	=531
2B	.
(4BB	.
4C#	.
=532	=532
4D#	.
4E)	.
[2B	sf
=533	=533
2B	.
(4BB	.
4C#	.
=534	=534
4D#	.
4E)	.
(4C#	.
4D#	.
=535	=535
4E#	.
4F#)	.
!LO:TX:t=cresc.	!
(4E	<
4F#	.
=536	=536
4G#	.
4A	.
4B	.
4c#)	.
=537	=537
4B	.
4r	.
4BB	.
4r	.
=538	=538
4e	p
4d#	sf
4c#	.
4B	sf
=539	=539
4A	.
4G#	sf
4F#	.
4E	sf
=540	=540
1D#	sf
=541	=541
4E	.
4AA	.
4BB	.
4BB	.
=542	=542
2r	.
4c#	p
4B	sf
=543	=543
4A	.
4G#	sf
4F#	.
4E	sf
=544	=544
4D#	f
4r	.
2r	.
=545	=545
1r	.
=546	=546
(2G#	pp
2c#	.
=547	=547
2F#	.
2B	.
=548	=548
2E	.
2A	.
=549	=549
2B	.
2BB)	.
=550	=550
4E	p
4r	.
2r	.
=551	=551
4r	.
4G#	.
4G#	.
4G#	.
=552	=552
4A	.
4r	.
2r	.
=553	=553
4r	.
4B	.
4B	.
4B	.
=554	=554
4E	.
4r	.
2r	.
=555	=555
4r	.
4GG#	.
4GG#	.
4GG#	.
=556	=556
4AA	.
4r	.
2r	.
=557	=557
4r	.
4BB	.
4BB	.
4BB	.
=558	=558
4E	.
4r	.
2r	.
=559	=559
1r	.
=560	=560
1r	.
=561	=561
4r	.
4BB	.
4BB	.
4BB	.
=562	=562
4E	.
4r	.
2r	.
=563	=563
1r	.
=564	=564
1r	.
=565	=565
4r	.
4BB	.
4BB	.
4BB	.
=566	=566
4E	.
4r	.
2r	.
=567	=567
(1BB	.
=568	=568
4E)	.
4r	.
2r	.
=569	=569
(1BB	.
=570	=570
!LO:TX:t=cresc.	!
4E)	<
(8EE	.
8DD#	.
8EEL	.
8DD#	.
8EE	.
8DD#	.
=571	=571
8EEL	.
8DD#	.
8EE	.
8DD#	.
8EEL	.
8DD#	.
8EE	.
8DD#)	.
=572	=572
[1EE	p
=573	=573
[2EE	.
8EEL	.
=574:|!	=574:|!
[1EE#	p
=575	=575
[2EE#	>
8EE#L	]
=||	=||
8r	.
4r	.
=576	=576
8r	.
8C#	f
8D	.
8C#	.
[2F#	.
=577	=577
4F#	.
(4C#	.
4AA	.
4FF#)	.
=578	=578
(2CC#	sf
2FF#)	.
=579	=579
(2CC#	sf
2FF#)	.
=580	=580
4CC#	.
4C#	.
4GG#	.
4GG#	.
=581	=581
(1C#	p
=582	=582
!LO:TX:t=cresc.	!
[2AA)	<
8AAL	.
8AA	.
8BB	.
8AA	.
=583	=583
[1D	f
=584	=584
4D	.
4AA	.
4FF#	.
4DD	.
=585	=585
(2AA	sf
2D)	.
=586	=586
(2AA	sf
2D)	.
=587	=587
(2AA	sf
4D)	.
4r	.
=588	=588
1r	.
=589	=589
8r	.
8AA	.
8BB	.
8AA	.
4A	.
4r	.
=590	=590
8r	.
8AA	.
8BB	.
8AA	.
8AL	.
8A	.
8B	.
8A	.
=591	=591
4d	.
4r	.
(2f	.
=592	=592
2e	.
2d	.
=593	=593
2c	.
2B-	.
=594	=594
2A	.
2G	.
=595	=595
8F)	ff
8D	.
8E	.
8D	.
[2d	sf
=596	=596
1d	.
=597	=597
4G	.
4r	.
2r	.
=598	=598
1r	.
=599	=599
8r	.
8C	ff
8D	.
8C	.
[2c	sf
=600	=600
1c	.
=601	=601
4F	.
4r	.
2r	.
=602	=602
(2F	.
2F#)	.
=603	=603
4G	.
4r	.
2r	.
=604	=604
1r	.
=605	=605
1r	.
=606	=606
1r	.
=607	=607
4GG	.
4r	.
4r	.
4G	sf
=608	=608
4GG	.
4r	.
4r	.
4G	sf
=609	=609
4GG	.
4r	.
4r	.
4G	sf
=610	=610
4GG	.
4G	.
4GG	.
4G	.
=611	=611
4GG	.
4D	ff
4G	.
4D	.
=612	=612
4G	.
4r	.
2r	.
=613	=613
(1C	p
=614	=614
1FF)	.
=615	=615
[2GG	.
(8GGL	.
8AA	.
8GG	.
8FF)	.
=616	=616
4EE	.
4r	.
2r	.
=617	=617
4c	pp
4B	.
4A	.
4G	.
=618	=618
!LO:TX:t=sempre staccato	!
4F	.
4E	.
4D	.
4C	.
=619	=619
4BB	.
4GG	.
4AA	.
4BB	.
=620	=620
4C	.
4EE	.
4FF#	.
4GG#	.
=621	=621
4AA	.
4G	.
4F	.
4E	.
=622	=622
4D	.
4C	.
4BB	.
4AA	.
=623	=623
4GG#	.
4EE	.
4FF#	.
4GG#	.
=624	=624
4AA	.
4BB	.
4C	.
4D#	.
=625	=625
4E	.
4D	.
4C	.
4BB	.
=626	=626
4AA	.
4C	.
4E	.
4A	.
=627	=627
4B	.
4F#	.
4D#	.
4BB	.
=628	=628
4EE	.
4GG#	.
4BB	.
4E	.
=629	=629
!LO:TX:t=cresc.	!
4AA	<
4G	.
4F#	.
4D	.
=630	=630
4GG	.
4F	.
4E	.
4C	.
=631	=631
4FF	.
4F	.
4EE	.
4E	.
=632	=632
4DD	.
4D	.
4D	.
4D#	.
=633	=633
4E	[
4E	p
4E	.
4E	.
=634	=634
4E	.
4E	.
4E	.
4E	.
=635	=635
4E	.
4E	.
4E	.
4E	.
=636	=636
4E	.
4E	.
4E	.
4E	.
=637	=637
4E	.
4r	.
2r	.
*clefG2	*
=638	=638
1dd	.
=639	=639
1cc#	.
=640	=640
4aa	.
4aa	.
4aa	.
4aa	.
=641	=641
4gg#	.
4ee	.
4ee	.
4ee	.
=642	=642
4ee	.
4ee	.
4ee	.
4ee	.
=643	=643
4ee	.
*clefF4	*
4E	.
4E	.
4E	.
=644	=644
4E	.
4E	.
4E	.
4E	.
=645	=645
!LO:TX:t=cresc.	!
1E	<
=646	=646
1EE	.
=647	=647
[1EE	p
=648	=648
[2EE	.
8EEL	.
8r	.
4r	.
=649	=649
8r	.
8E	p
8F#	.
8E	.
[2A	.
=650	=650
4A	.
(4E	.
4C#	.
4AA)	.
=651	=651
(2EE	.
2AA)	.
=652	=652
(2EE	.
2AA)	.
=653	=653
4EE	.
4E	.
4BB	.
4BB	.
=654	=654
[2E	.
8EL	.
8r	.
4r	.
=655	=655
1r	.
=656	=656
8r	.
8BB	.
8AA#	.
8BB	.
2EE	.
=657	=657
(2AA	.
2E	.
=658	=658
2AA	.
2EE)	.
=659	=659
(2AA	.
2E)	.
=660	=660
4AA	.
4r	.
2r	.
=661	=661
1r	.
=662	=662
8r	.
8E	.
8F#	.
8E	.
2e	.
=663	=663
1r	.
=664	=664
(2.A	.
4e	.
=665	=665
4f#	.
4e	.
4g	.
4f#)	.
*clefG2	*
=666	=666
(2.ee	.
4ff#	.
=667	=667
4gg	.
4ff#	.
4aa	.
4gg)	.
=668	=668
!LO:TX:t=cresc.	!
(2.ff#	<
4gg	.
=669	=669
4ff#	.
4gg	.
4cc#	.
4dd)	.
=670	=670
(2.gg	.
4ff#	.
=671	=671
4cc#	.
4dd	.
4b	.
4cc#)	.
=672	=672
4dd	[
4r	.
2r	.
=673	=673
2r	.
*clefF4	*
8r	.
8c#	p
8d	.
8c#	.
=674	=674
4B	.
4r	.
2r	.
=675	=675
2r	.
8r	.
8A	.
8B	.
8A	.
=676	=676
4G#	.
4r	.
2r	.
=677	=677
2r	.
8r	.
8F#	.
8G#	.
8F#	.
=678	=678
4E	.
(2E	.
8F#	.
8G#)	.
=679	=679
4A	.
4B	.
4c	.
4A	.
=680	=680
4e	.
4r	.
2r	.
=681	=681
1r	.
=682	=682
4r	.
(2E	.
8F#	.
8G#)	.
=683	=683
4A	.
4B	.
4c	.
4A	.
=684	=684
4e	.
!LO:TX:t=cresc.	!
(2E	<
8F#	.
8G#)	.
=685	=685
4A	.
4B	.
4c	.
4A	.
=686	=686
4e	f
4A	.
4e	.
4A	.
=687	=687
4e	.
4r	.
2r	.
=688	=688
(1AA	pp
=689	=689
1DD	.
=690	=690
1EE)	.
=691	=691
1CC#	.
=692	=692
!LO:TX:t=cresc.	!
(2FF#	<
[2BB)	.
=693	=693
(2BB	.
2C#)	.
=694	=694
(2D	p
2D#)	.
=695	=695
4E	.
4r	.
2r	.
=696	=696
1r	.
=697	=697
1r	.
=698	=698
(4G#	p
4F#	.
4E	.
4D	.
=699	=699
4C#	.
4BB	.
4AA	.
4GG#	.
=700	=700
4FF#)	.
!LO:TX:t=cresc.	!
(4D	<
4BB	.
4AA	.
=701	=701
4GG#	.
4EE	.
4AA	.
4C#)	.
=702	=702
(4D	p
4BB	.
4E)	.
4EE	.
=703	=703
4AA	.
[2.e	sf
=704	=704
2e	.
(4E	.
4F#	.
=705	=705
4G#	.
4A)	.
[2e	sf
=706	=706
2e	.
(4E	.
4F#	.
=707	=707
4G#	.
4A)	.
(4F#	.
4G#	.
=708	=708
4A#	.
4B)	.
!LO:TX:t=cresc.	!
(4AA	<
4BB	.
=709	=709
4C#	.
4D	.
4E	.
4F#)	.
=710	=710
(4G#	.
4A	.
4E)	.
4EE	[
=711	=711
1r	.
=712	=712
1r	.
=713	=713
(1G#	sf
=714	=714
4A)	.
4D	.
4E	.
4EE	.
=715	=715
2r	.
4f#	p
4e	sf
=716	=716
4d	.
4c#	sf
4B	.
4A	sf
=717	=717
4G#	f
4r	.
2r	.
=718	=718
1r	.
=719	=719
(2c#	pp
2f#	.
=720	=720
2B	.
2e	.
=721	=721
2A	.
2d	.
=722	=722
2e	.
2E)	.
=723	=723
4A	p
4r	.
2r	.
=724	=724
4r	.
4c#	.
4c#	.
4c#	.
=725	=725
4d	.
4r	.
2r	.
=726	=726
4r	.
4E	.
4E	.
4E	.
=727	=727
4A	.
4r	.
2r	.
=728	=728
4r	.
4C#	.
4C#	.
4C#	.
=729	=729
4D	.
4r	.
2r	.
=730	=730
4r	.
4E	.
4E	.
4E	.
=731	=731
4AA	.
4r	.
2r	.
=732	=732
1r	.
=733	=733
1r	.
=734	=734
4r	.
4E	.
4E	.
4E	.
=735	=735
4AA	.
4r	.
2r	.
=736	=736
1r	.
=737	=737
1r	.
=738	=738
4r	.
4E	.
4E	.
4E	.
=739	=739
4A	.
4r	.
2r	.
=740	=740
(1E	.
=741	=741
4A)	.
4r	.
2r	.
=742	=742
[1EE	.
=743	=743
!LO:TX:t=cresc.	!
[1EE	<
=744	=744
1EE	.
=745	=745
8AAJ	f
8EL	.
8F#	.
8E	.
[2A	.
=746	=746
4A	.
(4E	.
4C#	.
4AA)	.
=747	=747
(2EE	sf
2AA)	.
=748	=748
(2EE	sf
2AA)	.
=749	=749
4EE	sf
4E	.
4BB	.
4BB	.
=750	=750
[2E	.
8EL	.
8r	.
4r	.
=751	=751
2r	.
(2AA	p
=752	=752
4D)	.
4r	.
2r	.
=753	=753
2r	.
(2AA	.
=754	=754
4D)	.
4r	.
2r	.
=755	=755
2r	.
(2E	.
=756	=756
4AA)	.
4r	.
2r	.
=757	=757
2r	.
(2EE	.
=758	=758
4AA)	.
4r	.
4r	.
4C#	.
=759	=759
4CC#	.
4r	.
4r	.
4C#	.
=760	=760
4DD	.
4r	.
4r	.
4D	.
=761	=761
4EE	.
4r	.
4r	.
4E	.
=762	=762
4AA	f
4r	.
8r	.
8CC#	.
8EE	.
8AA	.
=763	=763
4CC#	sf
4r	.
8r	.
8CC#	.
8EE	.
8AA	.
=764	=764
4DD	sf
4r	.
8r	.
8DD	.
8FF#	.
8BB	.
=765	=765
4EE	sf
4r	.
8r	.
8EE	.
8E	.
8E	.
=766	=766
4AA	.
4r	.
2r	.
=767	=767
1r	.
=768	=768
1r	.
=769	=769
(1E	p
=770	=770
4A)	.
4r	.
2r	.
=771	=771
(1G#	p
=772	=772
1A	.
=773	=773
1E)	.
=774	=774
4A	.
4r	.
2r	.
=775	=775
1r	.
=776	=776
!LO:TX:t=cresc.	!
4AA	<
4A	.
4E	.
4C#	.
=777	=777
4AA	.
4EE	.
4AA	.
4EE	.
=778	=778
4AA	f
4r	.
8r	.
(8E	.
8F#	.
8E)	.
=779	=779
4A	.
4r	.
8r	.
(8EE	.
8FF#	.
8EE)	.
=780	=780
[1AA	p
=781	=781
[2AA	.
8AAL	.
==	==
*-	*-
